X:320
T:Nellie Kane
C:Tim O'Brien
N:Transcribed by Mike Stangeland From John Baldry's "Bluegrass and Old-Time Mandoloin" 
R:bluegrass
L:1/8
Q:1/4=210
M:4/4
K:E
z3B B2 c2 |: {=d}"E"e2 ee e2 ee | cB Gc BG Be | ce ee cB Gc | BG Be BG Be | ce ee e2 ee | 
cB Gc BG Be | ce Be GF E2 | "C#m"FG BG Be GB | "B"ce Be FE FG |1 "E"E[gBEB,] [gBEB,][gBEB,] [gBEB,][gBEB,] [gBEB,][gBEB,] | 
[g2B2E2B,2] BB B2 c2 :|2 E"E"[EB,] [EB,][EB,] [EB,][EB,] [EB,][EC] | [E8B,8] | 
z8 | z8 | z8 | "."z8 | 


